!!!!SEGMENT: pl-kk--kk-i-7--021_anonim--agnus-dei.krn
!!!cenid: 16xx:811
!!!COM: Anonim
!!!COM-rismID: pe30004985
!!!CDT:
!!!CNT:
!!!OTL: Agnus Dei
!!!PDT:
!!!AGN: Sacred
!!!SMS-siglum: PL-Kk
!!!SMS-shelfmark: Kk.I.7
!!!SMS-shelfwork: 021 W
!!!SMS-variant:
!!!SMS-altvar:
!!!NIFC-rismSourceID: 300258098
!!!NIFC-islandoraID: pl-kk:1956
!!!URL-pdf-islandora: https://repozytorium.nifc.pl/islandora/object/pl-kk%3A1956/datastream/PDF/view
!!!URL-scan: https://polish.musicsources.pl/pl/lokalizacje/galeria/rekopisy/6140 @EN{Scan on Polish Music Sources Website} @PL{Skany w portalu Dziedzictwo Muzyki Polskiej w otwartym dostępie}
!!!ONB-nifc: UWAGA: C (skan 0014, s.23), A (0101, s.22-23), T(0177, s.18), B(0266, s.23). Następny utwór: Ecce virgo
!!!AIN: 1 alto 1 bass 1 soprn 1 tenor
!!!key:
**kern	**text	**text	**kern	**text	**text	**kern	**text	**kern	**text
*part4	*part4	*part4	*part3	*part3	*part3	*part2	*part2	*part1	*part1
*staff4	*staff4	*staff4	*staff3	*staff3	*staff3	*staff2	*staff2	*staff1	*staff1
*Ibass	*	*	*Itenor	*	*	*Ialto	*	*Isoprn	*
*I"Basso	*	*	*I"Tenore	*	*	*I"Alto	*	*I"Canto	*
*I'B.	*	*	*I'T.	*	*	*I'A.	*	*I'C.	*
*clefF4	*	*	*clefC4	*	*	*clefC4	*	*clefC3	*
*k[b-]	*	*	*k[b-]	*	*	*k[b-]	*	*k[b-]	*
*F:	*	*	*F:	*	*	*F:	*	*F:	*
*M2/1	*	*	*M2/1	*	*	*M2/1	*	*M2/1	*
*met(C|)	*	*	*met(C|)	*	*	*met(C|)	*	*met(C|)	*
=1	=1	=1	=1	=1	=1	=1	=1	=1	=1
*2\right	*	*	*2\right	*	*	*2\right	*	*2\right	*
*	*	*	*lig	*	*	*lig	*	*	*
!LO:TX:t=P:problem=all\right&colon; global	!	!	!LO:TX:t=P:problem=all\right&colon; global	!	!	!LO:TX:t=P:problem=all\right&colon; global	!	!LO:TX:t=P:problem=all\right&colon; global	!
!	!	!	!	!	!	!LO:TX:t=P:problem=ozdobna litera A na początku pięciolinii	!	!LO:TX:t=P:problem=ozdobna litera A na początku pięciolinii	!
!LO:TX:t=P:problem=ozdobna litera A na początku pięciolinii	!	!	!LO:TX:t=P:problem=ozdobna litera A na początku pięciolinii	!	!	!	!	!	!
2.C/	A-	.	1c	A-	.	1c	A-	1.g	A-
!LO:TX:t=P:problem=kreska pseudotaktowa	!	!	!	!	!	!	!	!	!
4BB-/	.	.	.	.	.	.	.	.	.
!	!	!	!	!	!	!LO:TX:t=P:problem=kreska pseudotaktowa	!	!	!
4GG/	.	.	1d	.	.	1B-	.	.	.
4AA/	.	.	.	.	.	.	.	.	.
!LO:TX:t=P:problem=kreska pseudotaktowa	!	!	!	!	!	!	!	!	!
2BB-/	.	.	.	.	.	.	.	4f\	.
!	!	!	!	!	!	!	!	!LO:TX:t=P:problem=kreska pseudotaktowa	!
.	.	.	.	.	.	.	.	4e\	.
*	*	*	*Xlig	*	*	*Xlig	*	*	*
=2	=2	=2	=2-	=2-	=2-	=2	=2	=2	=2
*	*	*	*lig	*	*	*	*	*	*
2.FF/	-gnus	.	1c	.	.	2.A/	-gnus	1f	.
!LO:TX:t=P:problem=kreska pseudotaktowa	!	!	!	!	!	!LO:TX:t=P:problem=kreska pseudotaktowa	!	!	!
4GG/	.	.	.	.	.	4B-\	.	.	.
4AA/	.	.	1A	.	.	4c\	.	2e\	.
4BB-/	.	.	.	.	.	4d\	.	.	.
!LO:TX:t=P:problem=kreska pseudotaktowa	!	!	!	!	!	!	!	!LO:TX:t=P:problem=kreska pseudotaktowa	!
2C/	.	.	.	.	.	2e\	.	2c/	.
*	*	*	*Xlig	*	*	*	*	*	*
=3	=3	=3	=3-	=3-	=3-	=3-	=3-	=3	=3
2.BB-/	.	.	1F	.	.	2f\	.	2d\	.
.	.	.	.	.	.	1d	De-	1f	.
!LO:TX:t=P:problem=kreska pseudotaktowa	!	!	!	!	!	!	!	!	!
4AA/	.	.	.	.	.	.	.	.	.
*	*	*	*lig	*	*	*	*	*	*
1GG	.	.	1G	.	.	.	.	.	.
!	!	!	!	!	!	!	!	!LO:TX:t=P:problem=kreska pseudotaktowa	!
.	.	.	.	.	.	4c\	.	2e\	.
!	!	!	!	!	!	!LO:TX:t=P:problem=kreska pseudotaktowa	!	!	!
.	.	.	.	.	.	4B-\	.	.	.
=4-	=4-	=4-	=4-	=4-	=4-	=4	=4	=4	=4
!	!	!	!	!	!	!LO:TX:t=P:problem=kreska pseudotaktowa	!	!	!
2FF/	.	.	1A	.	.	1c	-i	1f	-gnus
1F	De-	.	.	.	.	.	.	.	.
*	*	*	*Xlig	*	*	*	*	*	*
*	*	*	*lig	*	*	*	*	*	*
.	.	.	1G	-gnus	.	2r	.	1g	De-
*	*	*	*	*	*	*	*ij	*	*
!LO:TX:t=P:problem=kreska pseudotaktowa	!	!	!	!	!	!	!	!	!
2E\	.	.	.	.	.	2c\	De-	.	.
=5	=5	=5	=5-	=5-	=5-	=5-	=5-	=5-	=5-
!	!	!	!LO:TX:t=P:problem=kreska pseudotaktowa	!	!	!LO:TX:t=P:problem=kreska pseudotaktowa	!	!	!
4F\	.	.	1F	.	.	1A	.	2c/	.
4E\	.	.	.	.	.	.	.	.	.
!	!	!	!	!	!	!	!	!LO:TX:t=P:problem=kreska pseudotaktowa przed kropką nuty 2.d	!
4D/	.	.	.	.	.	.	.	2.d\	.
!LO:TX:t=P:problem=kreska pseudotaktowa	!	!	!	!	!	!	!	!	!
4C/	.	.	.	.	.	.	.	.	.
*	*	*	*Xlig	*	*	*	*	*	*
*	*	*	*lig	*	*	*	*	*	*
2.BB-/	.	.	1B-	De-	.	1d	.	.	.
.	.	.	.	.	.	.	.	4e\	.
.	.	.	.	.	.	.	.	1f\	.
!LO:TX:t=P:problem=kreska pseudotaktowa	!	!	!	!	!	!	!	!	!
4AA/	.	.	.	.	.	.	.	.	.
=6	=6	=6	=6-	=6-	=6-	=6-	=6-	=6-	=6-
!	!	!	!	!	!	!LO:TX:t=P:problem=kreska pseudotaktowa	!	!	!
4FF/	.	.	1A	.	.	0c	-i	.	.
*	*	*	*	*	*	*	*Xij	*	*
4GG/	.	.	.	.	.	.	.	.	.
4AA/	.	.	.	.	.	.	.	4e\	.
!LO:TX:t=P:problem=kreska pseudotaktowa	!	!	!	!	!	!	!	!LO:TX:t=P:problem=kreska pseudotaktowa	!
4BB-/	.	.	.	.	.	.	.	4d\	.
*	*	*	*Xlig	*	*	*	*	*	*
*	*	*	*lig	*	*	*	*	*	*
4C/	.	.	1G	.	.	.	.	4e\	.
4D/	.	.	.	.	.	.	.	4f\	.
!LO:TX:t=P:problem=kreska pseudotaktowa	!	!	!	!	!	!	!	!LO:TX:t=P:problem=kreska pseudotaktowa przed kropką nuty 2.g	!
2E\	.	.	.	.	.	.	.	2.g\	.
=7	=7	=7	=7-	=7-	=7-	=7	=7	=7	=7
2D\	.	.	1A	.	.	1r	.	.	.
.	.	.	.	.	.	.	.	4f\	.
2F\	.	.	.	.	.	.	.	1f	.
*	*	*	*Xlig	*	*	*	*	*	*
*	*	*	*lig	*	*	*	*	*	*
!LO:TX:t=P:problem=kreska pseudotaktowa	!	!	!	!	!	!	!	!	!
1C	.	.	1G	-i	.	2r	.	.	.
!	!	!	!	!	!	!LO:TX:t=P:problem=kreska pseudotaktowa	!	!LO:TX:t=P:problem=kreska pseudotaktowa	!
.	.	.	.	.	.	2c\	qui	2e\	.
=8	=8	=8	=8-	=8-	=8-	=8	=8	=8	=8
!LO:TX:t=P:problem=kreska pseudotaktowa	!	!	!LO:TX:t=P:problem=kreska pseudotaktowa	!	!	!	!	!	!
1FF	-i	.	1F	.	.	2A\	tol-	2f\	-i
!	!	!	!	!	!	!	!	!LO:TX:t=P:problem=kreska pseudotaktowa	!
.	.	.	.	.	.	4c\	.	2f\	qui
!	!	!	!	!	!	!LO:TX:t=P:problem=kreska pseudotaktowa	!	!	!
.	.	.	.	.	.	4B-\	.	.	.
*	*	*	*Xlig	*	*	*	*	*	*
*	*	*	*lig	*	*	*	*	*	*
2r	.	.	1F	qui	.	4A/	.	2d\	tol-
.	.	.	.	.	.	4G/	.	.	.
!LO:TX:t=P:problem=kreska pseudotaktowa	!	!	!	!	!	!LO:TX:t=P:problem=kreska pseudotaktowa	!	!	!
2F\	qui	.	.	.	.	2A/	.	1f\	.
=9	=9	=9	=9-	=9-	=9-	=9	=9	=9-	=9-
!	!	!	!LO:TX:t=P:problem=kreska pseudotaktowa	!	!	!	!	!	!
2D/	.	.	1A	.	.	2.F/	.	.	.
!	!	!	!	!	!	!	!	!LO:SIC:v:s=4f\	!
1F	tol-	.	.	.	.	.	.	4e\	.
!	!	!	!	!	!	!	!	!LO:TX:t=P:problem=kreska pseudotaktowa	!
.	.	.	.	.	.	4G/	.	4d\	.
*	*	*	*Xlig	*	*	*	*	*	*
*	*	*	*lig	*	*	*	*	*	*
.	.	.	1c	tol-	.	4A/	.	4c/	.
.	.	.	.	.	.	4B-\	.	4d\	.
*custos:D	*	*	*	*	*	*	*	*custos:f	*
!LO:TX:t=P:problem=kreska pseudotaktowa	!	!	!	!	!	!	!	!LO:TX:t=P:problem=kreska pseudotaktowa	!
2E\	.	.	.	.	.	1c\	.	2e\	.
!LO:LB:g=original	!	!	!	!	!	!	!	!LO:LB:g=original	!
=10	=10	=10	=10-	=10-	=10-	=10-	=10-	=10	=10
1D	.	.	1d	.	.	.	.	1f	.
!	!	!	!	!	!	!LO:TX:t=P:problem=kreska pseudotaktowa	!	!	!
.	.	.	.	.	.	2B-\	.	.	.
*	*	*	*Xlig	*	*	*	*	*	*
*	*	*	*lig	*	*	*	*	*	*
*	*	*	*	*	*	*custos:F	*	*	*
!	!	!	!	!	!	!LO:TX:t=P:problem=kreska pseudotaktowa	!	!	!
2C/	.	.	1e	.	.	1c	-lis	2e\	.
!LO:TX:t=P:problem=kreska pseudotaktowa	!	!	!	!	!	!	!	!LO:TX:t=P:problem=kreska pseudotaktowa	!
2AA/	.	.	.	.	.	.	.	2c/	.
!	!	!	!	!	!	!LO:LB:g=original	!	!	!
=11	=11	=11	=11-	=11-	=11-	=11	=11	=11	=11
2.BB-/	.	.	1d	.	.	1F	qui	2d\	.
.	.	.	.	.	.	.	.	1f	.
4AA/	.	.	.	.	.	.	.	.	.
*	*	*	*Xlig	*	*	*	*	*	*
!LO:TX:t=P:problem=kreska pseudotaktowa	!	!	!	!	!	!LO:TX:t=P:problem=kreska pseudotaktowa	!	!	!
1GG	.	.	1B-	.	.	1G	tol-	.	.
.	.	.	.	.	.	.	.	2e\	.
=12	=12	=12	=12-	=12-	=12-	=12	=12	=12-	=12-
!	!	!	!LO:TX:t=P:problem=kreska pseudotaktowa	!	!	!	!	!LO:TX:t=P:problem=kreska pseudotaktowa	!
2FF/	-lis	.	1c	-lis	.	2A/	-lis	1f	-lis
1F	pec-	.	.	.	.	1A	lis	.	.
.	.	.	1f	pec-	.	.	.	2r	.
!LO:TX:t=P:problem=kreska pseudotaktowa	!	!	!	!	!	!LO:TX:t=P:problem=kreska pseudotaktowa	!	!	!
2F\	-ca-	.	.	.	.	2A/	pec-	1f\	pec-
=13	=13	=13	=13-	=13-	=13-	=13	=13	=13-	=13-
1BB-	-ta	.	1d	-ca-	.	1B-	-ca-	.	.
!	!	!	!	!	!	!	!	!LO:TX:t=P:problem=kreska pseudotaktowa	!
.	.	.	.	.	.	.	.	2f\	-ca-
!	!	!	!LO:TX:t=P:problem=kreska pseudotaktowa	!	!	!LO:TX:t=P:problem=kreska pseudotaktowa	!	!	!
1BB-	mun-	.	1f	-ta	.	1B-	-ta	1d	-ta
=14-	=14-	=14-	=14	=14	=14	=14	=14	=14-	=14-
*	*	*	*lig	*	*	*	*	*	*
!LO:TX:t=P:problem=kreska pseudotaktowa	!	!	!	!	!	!	!	!	!
1C	-di	.	1e	mun-	.	2G/	mun-	2c/	.
.	.	.	.	.	.	1c	.	2.e\	mun-
2r	.	.	1f	.	.	.	.	.	.
.	.	.	.	.	.	.	.	4d\	.
!LO:TX:t=P:problem=kreska pseudotaktowa	!	!	!	!	!	!LO:TX:t=P:problem=kreska pseudotaktowa	!	!	!
2F\	pec-	.	.	.	.	2A/	.	1d\	.
*	*	*	*Xlig	*	*	*	*	*	*
=15	=15	=15	=15-	=15-	=15-	=15	=15	=15-	=15-
2G\	-ca-	.	1e	.	.	2B-\	.	.	.
!	!	!	!	!	!	!	!	!LO:TX:t=P:problem=kreska pseudotaktowa	!
2A\	-ta	.	.	.	.	2c\	.	2c/	.
*	*	*	*lig	*	*	*	*	*	*
!LO:TX:t=P:problem=kreska pseudotaktowa	!	!	!	!	!	!LO:TX:t=P:problem=kreska pseudotaktowa	!	!	!
1B-	mun-	.	1d	.	.	1G	-di	2.d\	.
.	.	.	.	.	.	.	.	4e\	.
=16	=16	=16	=16-	=16-	=16-	=16	=16	=16-	=16-
*	*	*	*custos:d	*	*	*	*	*	*
2.A\	.	.	1c	.	.	2r	.	2f\	.
!	!	!	!	!	!	!	!	!LO:TX:t=P:problem=kreska pseudotaktowa	!
.	.	.	.	.	.	2c\	pec-	2e\	.
4G\	.	.	.	.	.	.	.	.	.
*	*	*	*Xlig	*	*	*	*	*	*
!	!	!	!LO:LB:g=original	!	!	!	!	!	!
2F\	.	.	1d	.	.	2A/	-ca-	2f\	.
!LO:TX:t=P:problem=kreska pseudotaktowa	!	!	!	!	!	!LO:TX:t=P:problem=kreska pseudotaktowa	!	!	!
2G\	.	.	.	.	.	2B-\	.	2d\	.
=17	=17	=17	=17-	=17-	=17-	=17	=17	=17-	=17-
!	!	!	!LO:TX:t=P:problem=kreska pseudotaktowa	!	!	!	!	!	!
1E	.	.	1c	-di	.	1G	-ta	2e\	.
!	!	!	!	!	!	!	!	!LO:TX:t=P:problem=kreska pseudotaktowa	!
.	.	.	.	.	.	.	.	2g\	.
2D/	-di	.	1f	mi-	Do-	2A/	mun-	2f\	.
*	*ij	*	*	*	*	*	*	*	*
!LO:TX:t=P:problem=kreska pseudotaktowa	!	!	!	!	!	!LO:TX:t=P:problem=kreska pseudotaktowa	!	!	!
2BB-/	mun-	.	.	.	.	2B-\	.	2d\	.
=18	=18	=18	=18-	=18-	=18-	=18	=18	=18-	=18-
*	*	*	*lig	*	*	*	*	*	*
2AA/	.	.	1f	-ſe-	-na	2c\	-di	2c/	.
!	!	!	!	!	!	!	!	!LO:TX:t=P:problem=kreska pseudotaktowa	!
2BB-/	.	.	.	.	.	4B-\	mi-	2d\	di
!	!	!	!	!	!	!LO:TX:t=P:problem=kreska pseudotaktowa	!	!	!
.	.	.	.	.	.	4A\	.	.	.
!LO:TX:t=P:problem=kreska pseudotaktowa	!	!	!	!	!	!	!	!	!
1C	.	.	1c	.	.	1G	-ſe-	4e\	mi-
.	.	.	.	.	.	.	.	4f\	.
.	.	.	.	.	.	.	.	4g\	-ſe-
.	.	.	.	.	.	.	.	4e\	.
*	*	*	*Xlig	*	*	*	*	*	*
=19	=19	=19	=19-	=19-	=19-	=19-	=19-	=19-	=19-
2FF,</	-di	.	1A	-re-	no-	2.c\	-re-	2f\	-re-
*	*Xij	*	*	*	*	*	*	*	*
!	!	!	!	!	!	!	!	!LO:TX:t=P:problem=kreska pseudotaktowa	!
2.F\	mi-	Do-	.	.	.	.	.	2c/	-re
!	!	!	!	!	!	!LO:TX:t=P:problem=kreska pseudotaktowa	!	!	!
.	.	.	.	.	.	4B-\	.	.	.
!	!	!	!LO:TX:t=P:problem=kreska pseudotaktowa	!	!	!	!	!	!
.	.	.	1F	-re	-bis	4A/	.	2.d\	no-
4E\	.	.	.	.	.	4G/	.	.	.
4D/	.	.	.	.	.	4F/	.	.	.
!	!	!	!	!	!	!LO:TX:t=P:problem=kreska pseudotaktowa	!	!	!
4C/	.	.	.	.	.	4E/	.	4e\	.
=20-	=20-	=20-	=20	=20	=20	=20	=20	=20-	=20-
*	*	*	*lig	*	*	*	*	*	*
2BB-/	.	.	1B-	no-	pa-	2D/	.	2f\	.
*custos:AA	*	*	*	*	*	*	*	*custos:c	*
!LO:TX:t=P:problem=kreska pseudotaktowa	!	!	!	!	!	!	!	!LO:TX:t=P:problem=kreska pseudotaktowa	!
2GG/	-ſe-	-na	.	.	.	2.G/	re	2g\	.
!LO:LB:g=original	!	!	!	!	!	!	!	!LO:LB:g=original	!
2AA/	-re-	no-	1A	.	.	.	.	2.c/	.
.	.	.	.	.	.	4F/	.	.	.
2FF/	-re-	-bis	.	.	.	1F/	no-	.	.
.	.	.	.	.	.	.	.	4d\	.
*	*	*	*Xlig	*	*	*	*	*	*
=21-	=21-	=21-	=21-	=21-	=21-	=21-	=21-	=21-	=21-
*	*	*	*lig	*	*	*	*	*	*
1C	-no-	pa-	1G	.	.	.	.	4e\	.
.	.	.	.	.	.	.	.	4f\	.
!	!	!	!	!	!	!LO:TX:t=P:problem=kreska pseudotaktowa	!	!LO:TX:t=P:problem=kreska pseudotaktowa przed kropką nuty 2.g	!
.	.	.	.	.	.	2E/	.	2.g\	.
*	*	*	*	*	*	*custos:B-	*	*	*
!LO:TX:t=P:problem=kreska pseudotaktowa	!	!	!	!	!	!LO:TX:t=P:problem=kreska pseudotaktowa	!	!	!
1FF	-bis	-cem	1A	.	.	1F	-bis	.	.
.	.	.	.	.	.	.	.	4f\	.
.	.	.	.	.	.	.	.	1f\	.
*	*	*	*Xlig	*	*	*	*	*	*
!	!	!	!	!	!	!LO:LB:g=original	!	!	!
=22	=22	=22	=22-	=22-	=22-	=22	=22	=22-	=22-
1r	.	.	1G	.	.	1B-	no-	.	.
!	!	!	!	!	!	!	!	!LO:TX:t=P:problem=kreska pseudotaktowa	!
.	.	.	.	.	.	.	.	2e\	.
!	!	!	!LO:TX:t=P:problem=kreska pseudotaktowa [podwójna]	!	!	!	!	!LO:TX:t=P:problem=kreska pseudotaktowa	!
2r	.	.	[1Fl;>\	-bis	-cem.	2A/	-bis	1f	-bis
*	*ij	*	*	*	*	*	*	*	*
!LO:TX:t=P:problem=kreska pseudotaktowa	!	!	!	!	!	!LO:TX:t=P:problem=kreska pseudotaktowa	!	!	!
2FF/	mi-	Do-	.	.	.	2A/	mi-	.	.
=23	=23	=23	=23-	=23-	=23-	=23	=23	=23	=23
2FF/	-ſe-	-na	0F_	.	.	2A/	-ſe-	2r	.
*	*	*	*	*	*	*	*	*	*ij
!	!	!	!	!	!	!LO:TX:t=P:problem=kreska pseudotaktowa	!	!LO:TX:t=P:problem=kreska pseudotaktowa	!
2FF/	-re-	no-	.	.	.	2A/	-re-	2c/	mi-
1BB-,<	-re	-bis	.	.	.	2.B-\	-re-	2d\	-ſe-
!	!	!	!	!	!	!	!	!LO:TX:t=P:problem=kreska pseudotaktowa	!
.	.	.	.	.	.	.	.	2d\	-re-
.	.	.	.	.	.	4c\	.	.	.
=24-	=24-	=24-	=24-	=24-	=24-	=24-	=24-	=24	=24
!LO:TX:t=P:problem=kreska pseudotaktowa	!	!	!	!	!	!	!	!	!
1BB-	no-	pa-	0F_	.	.	2d\	.	2B-/	-re
!	!	!	!	!	!	!LO:TX:t=P:problem=kreska pseudotaktowa	!	!	!
.	.	.	.	.	.	2B-\	.	2d\	no-
!LO:TX:a:t=P:problem=very like terminal long	!	!	!	!	!	!LO:TX:a:t=P:problem=very like terminal long	!	!LO:TX:a:t=P:problem=very like terminal long	!
!	!	!	!	!	!	!LO:TX:a:t=P:problem=w źródle możliwa fermata nad i pod nutą	!	!LO:TX:a:t=P:problem=w źródle fermata również pod nutą	!
!	!	!	!	!	!	!LO:TX:t=P:problem=kreska pseudotaktowa [podwójna]	!	!LO:TX:t=P:problem=kreska pseudotaktowa [podwójna]	!
[1FFl;>	-bis	-cem	.	.	.	[1Al	-no-	[1cl;;	-bis
*	*Xij	*	*	*	*	*	*	*	*Xij
=25-	=25-	=25-	=25-	=25-	=25-	=25-	=25-	=25-	=25-
0FF]	.	.	0F]	.	.	0A]	-bis	0c]	.
=26||	=26||	=26||	=26||	=26||	=26||	=26||	=26||	=26||	=26||
*M2/1	*	*	*M2/1	*	*	*M2/1	*	*M2/1	*
*met(C|)	*	*	*met(C|)	*	*	*met(C|)	*	*met(C|)	*
!	!	!	!	!	!	!LO:TX:t=P:problem=w źródle ozdobna litera A na śródku pięciolinii po podwójnej kresce taktowej	!	!LO:TX:t=P:problem=w źródle ozdobna litera A na śródku pięciolinii po podwójnej kresce taktowej	!
!LO:TX:t=P:problem=w źródle ozdobna litera A na śródku pięciolinii po podwójnej kresce taktowej	!	!	!LO:TX:t=P:problem=w źródle ozdobna litera A na śródku pięciolinii po podwójnej kresce taktowej	!	!	!	!	!	!
!	!	!	!	!	!	!	!	!LO:TX:t=P:problem=kreska pseudotaktowa	!
2.F\	A-	.	1f	A-	.	2.c\	A-	1r	.
!LO:TX:t=P:problem=kreska pseudotaktowa	!	!	!	!	!	!	!	!	!
4G\	.	.	.	.	.	4B-\	.	.	.
*	*	*	*lig	*	*	*	*	*	*
2A\	.	.	1f	.	.	2c\	.	2r	.
!LO:TX:t=P:problem=kreska pseudotaktowa	!	!	!	!	!	!LO:TX:t=P:problem=kreska pseudotaktowa	!	!LO:TX:t=P:problem=kreska pseudotaktowa	!
2B-\	.	.	.	.	.	2d\	.	2f\	A-
=27	=27	=27	=27-	=27-	=27-	=27	=27	=27	=27
2G\	-gnus	.	1e	.	.	2B-\	.	2g\	.
!LO:TX:t=P:problem=kreska pseudotaktowa	!	!	!	!	!	!	!	!LO:TX:t=P:problem=kreska pseudotaktowa	!
2A\	.	.	.	.	.	2c\	.	2e\	-gnus
*	*	*	*Xlig	*	*	*	*	*	*
*	*	*	*lig	*	*	*	*	*	*
2F\	.	.	1d	-gnus	.	2A/	-gnus	2f\	De-
!LO:TX:t=P:problem=kreska pseudotaktowa	!	!	!	!	!	!	!	!	!
2G\	.	.	.	.	.	1B-\	De-	1d\	.
=28	=28	=28	=28-	=28-	=28-	=28-	=28-	=28-	=28-
!	!	!	!LO:TX:t=P:problem=kreska pseudotaktowa	!	!	!	!	!	!
2.D/	De-	.	1f	.	.	.	.	.	.
.	.	.	.	.	.	4A/	.	4c/	.
!LO:TX:t=P:problem=kreska pseudotaktowa	!	!	!	!	!	!LO:TX:t=P:problem=kreska pseudotaktowa	!	!LO:TX:t=P:problem=kreska pseudotaktowa	!
4E\	.	.	.	.	.	4G/	.	4B-/	.
*	*	*	*Xlig	*	*	*	*	*	*
1.F	.	.	1c	De-	.	2A/	.	2A/	.
.	.	.	.	.	.	4F/	.	1a\	.
!	!	!	!	!	!	!LO:TX:t=P:problem=kreska pseudotaktowa	!	!	!
.	.	.	.	.	.	4G/	.	.	.
=29-	=29-	=29-	=29-	=29-	=29-	=29	=29	=29-	=29-
*	*	*	*lig	*	*	*	*	*	*
.	.	.	1c	.	.	4A/	.	.	.
.	.	.	.	.	.	4B-\	.	.	.
!LO:TX:t=P:problem=kreska pseudotaktowa	!	!	!	!	!	!	!	!LO:TX:t=P:problem=kreska pseudotaktowa	!
2E\	.	.	.	.	.	1c	.	2g\	.
1D	.	.	1d	.	.	.	.	1f	.
!	!	!	!	!	!	!LO:TX:t=P:problem=kreska pseudotaktowa	!	!	!
.	.	.	.	.	.	2B-\	.	.	.
*	*	*	*Xlig	*	*	*	*	*	*
=30-	=30-	=30-	=30-	=30-	=30-	=30	=30	=30-	=30-
*	*	*	*lig	*	*	*	*	*	*
*custos:FF	*	*	*	*	*	*	*	*	*
!LO:TX:t=P:problem=kreska pseudotaktowa	!	!	!	!	!	!	!	!	!
1C	.	.	1e	-i	.	2c\	.	2e\	.
.	.	.	.	.	.	2G/	.	1c	.
!LO:LB:g=original	!	!	!	!	!	!	!	!	!
!LO:TX:t=P:problem=kreska pseudotaktowa	!	!	!LO:TX:t=P:problem=kreska pseudotaktowa	!	!	!LO:TX:t=P:problem=kreska pseudotaktowa	!	!	!
1FF	-i	.	1f	.	.	1A	-i	.	.
*	*	*	*	*	*	*	*	*custos:d	*
!	!	!	!	!	!	!	!	!LO:TX:t=P:problem=kreska pseudotaktowa	!
.	.	.	.	.	.	.	.	2c/	-i
*	*	*	*Xlig	*	*	*	*	*	*
!	!	!	!	!	!	!	!	!LO:LB:g=original	!
=31	=31	=31	=31	=31	=31	=31	=31	=31	=31
*	*	*	*lig	*	*	*	*	*	*
!LO:TX:t=P:problem=kreska pseudotaktowa	!	!	!	!	!	!	!	!	!
1BB-	qui	.	1f	qui	.	2.F/	qui	1d	qui
!	!	!	!	!	!	!LO:TX:t=P:problem=kreska pseudotaktowa	!	!	!
.	.	.	.	.	.	4G/	.	.	.
2.AA/	tol-	.	1c	.	.	4A/	.	2.e\	tol-
.	.	.	.	.	.	4B-\	.	.	.
*	*	*	*	*	*	*custos:F	*	*	*
.	.	.	.	.	.	1c\	.	.	.
!LO:TX:t=P:problem=kreska pseudotaktowa	!	!	!	!	!	!	!	!LO:TX:t=P:problem=kreska pseudotaktowa	!
4BB-/	.	.	.	.	.	.	.	4d\	.
*	*	*	*Xlig	*	*	*	*	*	*
=32	=32	=32	=32-	=32-	=32-	=32-	=32-	=32	=32
*	*	*	*lig	*	*	*	*	*	*
!	!	!	!LO:TX:a:t=P:problem=w źródle tajemnicza pozioma kreska nad ligaturą	!	!	!	!	!	!
2C/	.	.	1A	.	.	.	.	2e\	.
!	!	!	!	!	!	!LO:LB:g=original	!	!	!
!	!	!	!	!	!	!LO:TX:t=P:problem=kreska pseudotaktowa	!	!LO:TX:t=P:problem=kreska pseudotaktowa przed kropką nuty 2.f	!
2.D/	.	.	.	.	.	2F/	.	2.f\	.
*	*	*	*custos:B-	*	*	*	*	*	*
.	.	.	1F	.	.	1.B-	.	.	.
4C/	.	.	.	.	.	.	.	4e\	.
4BB-/	.	.	.	.	.	.	.	4d\	.
!LO:TX:t=P:problem=kreska pseudotaktowa	!	!	!	!	!	!	!	!LO:TX:t=P:problem=kreska pseudotaktowa	!
4AA/	.	.	.	.	.	.	.	4c/	.
*	*	*	*Xlig	*	*	*	*	*	*
!	!	!	!LO:LB:g=original	!	!	!	!	!	!
=33	=33	=33	=33-	=33-	=33-	=33-	=33-	=33	=33
*	*	*	*lig	*	*	*	*	*	*
2GG/	.	.	1B-	tol-	.	.	.	1d	.
!LO:TX:t=P:problem=kreska pseudotaktowa	!	!	!	!	!	!	!	!	!
2BB-/	.	.	.	.	.	4F/	.	.	.
!	!	!	!	!	!	!LO:TX:t=P:problem=kreska pseudotaktowa	!	!	!
.	.	.	.	.	.	4G/	.	.	.
4FF/	.	.	1A	.	.	4A/	.	2.c/	.
4GG/	.	.	.	.	.	4B-\	.	.	.
4AA/	.	.	.	.	.	1c\	.	.	.
!LO:TX:t=P:problem=kreska pseudotaktowa	!	!	!	!	!	!	!	!LO:TX:t=P:problem=kreska pseudotaktowa	!
4BB-/	.	.	.	.	.	.	.	4d\	.
*	*	*	*Xlig	*	*	*	*	*	*
=34	=34	=34	=34-	=34-	=34-	=34-	=34-	=34	=34
*	*	*	*lig	*	*	*	*	*	*
2C/	.	.	1G	.	.	.	.	4e\	.
.	.	.	.	.	.	.	.	4f\	.
!LO:TX:t=P:problem=kreska pseudotaktowa	!	!	!	!	!	!	!	!	!
!LO:SIC:v:s=2BB-/	!	!	!	!	!	!	!	!	!
2AA/	.	.	.	.	.	4B-\	.	2.g\	.
!	!	!	!	!	!	!LO:TX:t=P:problem=kreska pseudotaktowa	!	!	!
.	.	.	.	.	.	4c\	.	.	.
1D	.	.	1A	.	.	1.d	tol-	.	.
.	.	.	.	.	.	.	.	4f\	.
.	.	.	.	.	.	.	.	1f\	.
*	*	*	*Xlig	*	*	*	*	*	*
=35-	=35-	=35-	=35-	=35-	=35-	=35-	=35-	=35-	=35-
*	*	*	*lig	*	*	*	*	*	*
2BB-/	.	.	1G	-lis	.	.	.	.	.
!LO:TX:t=P:problem=kreska pseudotaktowa	!	!	!	!	!	!	!	!LO:TX:t=P:problem=kreska pseudotaktowa	!
2C/	.	.	.	.	.	4c\	.	2e\	.
!	!	!	!	!	!	!LO:TX:t=P:problem=kreska pseudotaktowa	!	!	!
.	.	.	.	.	.	4B-\	.	.	.
!LO:TX:t=P:problem=kreska pseudotaktowa	!	!	!LO:TX:t=P:problem=kreska pseudotaktowa	!	!	!	!	!LO:TX:t=P:problem=kreska pseudotaktowa	!
0FF	lis	.	1F	.	.	2A/	-lis	0.f	-lis
.	.	.	.	.	.	2c\	pec-	.	.
*	*	*	*Xlig	*	*	*	*	*	*
=36-	=36-	=36-	=36	=36	=36	=36-	=36-	=36-	=36-
.	.	.	1A	pec-	.	2.c\	-ca-	.	.
!	!	!	!	!	!	!LO:TX:t=P:problem=kreska pseudotaktowa	!	!	!
.	.	.	.	.	.	4B-\	.	.	.
2r	.	.	1c	-ca-	.	2.A/	.	.	.
!LO:TX:t=P:problem=kreska pseudotaktowa	!	!	!	!	!	!	!	!	!
2F\	pec-	.	.	.	.	.	.	.	.
!	!	!	!	!	!	!LO:TX:t=P:problem=kreska pseudotaktowa	!	!	!
.	.	.	.	.	.	4G/	.	.	.
=37	=37	=37	=37-	=37-	=37-	=37	=37	=37	=37
!	!	!	!LO:TX:t=P:problem=kreska pseudotaktowa	!	!	!	!	!	!
2.F\	-ca-	.	1c	-ta	.	2F/	-ta	2r	.
!	!	!	!	!	!	!	!	!LO:TX:t=P:problem=kreska pseudotaktowa	!
.	.	.	.	.	.	1A	.	2f\	pec-
4E\	.	.	.	.	.	.	.	.	.
*	*	*	*lig	*	*	*	*	*	*
1D	-ta	.	1d	mun-	.	.	.	1f	-ca-
!	!	!	!	!	!	!LO:TX:t=P:problem=kreska pseudotaktowa	!	!	!
.	.	.	.	.	.	2B-\	.	.	.
=38-	=38-	=38-	=38-	=38-	=38-	=38	=38	=38-	=38-
!LO:TX:t=P:problem=kreska pseudotaktowa	!	!	!	!	!	!	!	!	!
1C	.	.	1e	.	.	2c\	mun-	2e\	-ta
.	.	.	.	.	.	4B-\	.	1g	.
!	!	!	!	!	!	!LO:TX:t=P:problem=kreska pseudotaktowa	!	!	!
.	.	.	.	.	.	4A/	.	.	.
*	*	*	*Xlig	*	*	*	*	*	*
0G	mun-	.	1d	.	.	2.B-\	.	.	.
.	.	.	.	.	.	.	.	4f\	mun-
!	!	!	!	!	!	!	!	!LO:TX:t=P:problem=kreska pseudotaktowa	!
.	.	.	.	.	.	4c\	.	4e\	.
=39-	=39-	=39-	=39-	=39-	=39-	=39-	=39-	=39	=39
.	.	.	1B-	.	.	2d\	.	1d	.
.	.	.	.	.	.	1G	.	.	.
!LO:TX:t=P:problem=kreska pseudotaktowa	!	!	!LO:TX:t=P:problem=kreska pseudotaktowa	!	!	!	!	!	!
1C	-di	.	1c	-di	.	.	.	2e\	.
!	!	!	!	!	!	!LO:TX:t=P:problem=kreska pseudotaktowa	!	!LO:TX:t=P:problem=kreska pseudotaktowa	!
.	.	.	.	.	.	2c\	-di	2e\	-di
=40	=40	=40	=40	=40	=40	=40	=40	=40	=40
*	*	*	*	*	*	*	*	*	*ij
!LO:TX:t=P:problem=kreska pseudotaktowa	!	!	!	!	!	!	!	!	!
0r	.	.	1f	mi-	.	2A/	mi-	2c/	mun-
.	.	.	.	.	.	1B-	.	1d	.
*	*	*	*lig	*	*	*	*	*	*
.	.	.	1f	-ſe-	.	.	.	.	.
.	.	.	.	.	.	4A/	-ſe-	4c/	.
!	!	!	!	!	!	!LO:TX:t=P:problem=kreska pseudotaktowa	!	!LO:TX:t=P:problem=kreska pseudotaktowa	!
.	.	.	.	.	.	4G/	.	4B-/	.
=41-	=41-	=41-	=41-	=41-	=41-	=41	=41	=41	=41
2r	.	.	1c	.	.	2.A/	-re-	2c/	.
!	!	!	!	!	!	!	!	!LO:TX:t=P:problem=kreska pseudotaktowa	!
1F	mi-	.	.	.	.	.	.	2F/	-di
.	.	.	.	.	.	4B-\	.	.	.
*	*	*	*	*	*	*	*	*	*Xij
*	*	*	*Xlig	*	*	*	*	*	*
!	!	!	!	!	!	!LO:TX:t=P:problem=kreska pseudotaktowa	!	!	!
.	.	.	1A	-re-	.	1c	-re	2r	.
*custos:D	*	*	*	*	*	*	*	*	*
!LO:TX:t=P:problem=kreska pseudotaktowa	!	!	!	!	!	!	!	!	!
2F\	-ſe-	.	.	.	.	.	.	1f\	Do-
!LO:LB:g=original	!	!	!	!	!	!	!	!	!
=42	=42	=42	=42-	=42-	=42-	=42	=42	=42-	=42-
!LO:TX:t=P:problem=kreska pseudotaktowa	!	!	!LO:TX:t=P:problem=kreska pseudotaktowa	!	!	!	!	!	!
1D	-re-	.	1F	-re	.	2r	.	.	.
*	*	*	*	*	*	*	*	*custos:d	*
!	!	!	!	!	!	!	!	!LO:TX:t=P:problem=kreska pseudotaktowa	!
.	.	.	.	.	.	1f	Do-	2f\	-na
!	!	!	!	!	!	!	!	!LO:LB:g=original	!
*	*	*	*lig	*	*	*	*	*	*
2.BB-/	-re	.	1B-	no-	.	.	.	2d\	no-
!	!	!	!	!	!	!LO:TX:t=P:problem=kreska pseudotaktowa	!	!LO:TX:t=P:problem=kreska pseudotaktowa	!
.	.	.	.	.	.	2f\	-na	2B-/	-bis
!LO:TX:t=P:problem=kreska pseudotaktowa	!	!	!	!	!	!	!	!	!
4C/	.	.	.	.	.	.	.	.	.
=43	=43	=43	=43-	=43-	=43-	=43	=43	=43	=43
*	*	*	*	*	*	*custos:B-	*	*	*
!	!	!	!	!	!	!LO:TX:t=P:problem=kreska pseudotaktowa	!	!	!
2D/	no-	.	1A	.	.	1d	no-	2.f\	Pa-
!LO:TX:t=P:problem=kreska pseudotaktowa	!	!	!	!	!	!	!	!	!
2D/	-bis	.	.	.	.	.	.	.	.
!	!	!	!	!	!	!	!	!LO:TX:t=P:problem=kreska pseudotaktowa	!
.	.	.	.	.	.	.	.	4e\	.
*	*	*	*Xlig	*	*	*	*	*	*
!	!	!	!	!	!	!LO:PB:g=original	!	!	!
*	*	*	*lig	*	*	*	*	*	*
2GG,</	.	.	1G	.	.	2B-\	.	2d\	.
!LO:TX:t=P:problem=kreska pseudotaktowa	!	!	!	!	!	!LO:TX:t=P:problem=kreska pseudotaktowa przed kropką nuty 2.G	!	!	!
2C/	mi-	.	.	.	.	2.G/	-bis	4c/	.
.	.	.	.	.	.	.	.	4B-/	.
=44	=44	=44	=44-	=44-	=44-	=44	=44	=44-	=44-
!	!	!	!	!	!	!	!	!LO:TX:t=P:problem=kreska pseudotaktowa	!
2AA/	-ſe-	.	1A	.	.	.	.	1c	-cem
.	.	.	.	.	.	4F/	.	.	.
2FF/	-re-	.	.	.	.	1F	pa-	.	.
*	*	*	*Xlig	*	*	*	*	*	*
2C,</	-re	.	1G	.	.	.	.	2r	.
*	*	*	*	*	*	*	*	*	*ij
!LO:TX:t=P:problem=kreska pseudotaktowa	!	!	!	!	!	!LO:TX:t=P:problem=kreska pseudotaktowa	!	!	!
2C/	no-	.	.	.	.	2E/	.	1c\	no-
=45	=45	=45	=45-	=45-	=45-	=45	=45	=45-	=45-
!LO:TX:t=P:problem=kreska pseudotaktowa	!	!	!	!	!	!	!	!	!
!	!	!	!LO:TX:a:Bi:t=C(ommun)io.	!	!	!	!	!	!
1FF	-bis	.	[0Fl;>\	-bis	.	2F/	-cem	.	.
*	*	*	*	*	*	*	*ij	*	*
!	!	!	!	!	!	!	!	!LO:TX:t=P:problem=kreska pseudotaktowa	!
.	.	.	.	.	.	1c	Do-	2c/	-bis
2r	.	.	.	.	.	.	.	1A	pa-
*	*ij	*	*	*	*	*	*	*	*
!	!	!	!	!	!	!LO:TX:t=P:problem=kreska pseudotaktowa	!	!	!
1F\	mi-	.	.	.	.	2c\	-na	.	.
=46-	=46-	=46-	=46-	=46-	=46-	=46	=46	=46-	=46-
.	.	.	0F_	.	.	1A	no-	2F/	.
!LO:TX:t=P:problem=kreska pseudotaktowa	!	!	!	!	!	!	!	!	!
2F\	-ſe-	.	.	.	.	.	.	1f	-cem
1D	-re-	.	.	.	.	2F/	.	.	.
*	*	*	*	*	*	*	*	*	*Xij
!	!	!	!	!	!	!	!	!LO:TX:t=P:problem=kreska pseudotaktowa	!
.	.	.	.	.	.	1f\	bis	2f\	Do-
=47-	=47-	=47-	=47-	=47-	=47-	=47-	=47-	=47	=47
!LO:TX:t=P:problem=kreska pseudotaktowa	!	!	!	!	!	!	!	!	!
1BB-	-re	.	0F_	.	.	.	.	1d	-na
!	!	!	!	!	!	!LO:TX:t=P:problem=kreska pseudotaktowa	!	!	!
.	.	.	.	.	.	2f\	pa-	.	.
0BB-	no-	.	.	.	.	2d\	.	2B-/	no-
.	.	.	.	.	.	1B-\	.	1d\	.
=48-	=48-	=48-	=48-	=48-	=48-	=48-	=48-	=48-	=48-
.	.	.	0F_	.	.	.	.	.	.
.	.	.	.	.	.	4A/	.	4c/	-bis
!	!	!	!	!	!	!LO:TX:t=P:problem=kreska pseudotaktowa	!	!LO:TX:t=P:problem=kreska pseudotaktowa	!
.	.	.	.	.	.	4G/	.	4B-/	.
!	!	!	!	!	!	!LO:TX:a:t=P:problem=w źródle fermata również pod nutą	!	!	!
!LO:TX:a:t=P:problem=very like terminal long	!	!	!	!	!	!LO:TX:a:t=P:problem=very like terminal long	!	!	!
!LO:TX:a:t=P:problem=w źródle możliwa fermata nad i pod nutą	!	!	!	!	!	!	!	!	!
!	!	!	!	!	!	!LO:TX:a:Bi:t=C(ommun)io.	!	!	!
[1FFl	-bis	.	.	.	.	[1Al;;	-cem	2.c/	pa-
*	*Xij	*	*	*	*	*	*Xij	*	*
.	.	.	.	.	.	.	.	4d\	.
=49-	=49-	=49-	=49-	=49-	=49-	=49-	=49-	=49-	=49-
!LO:TX:a:t=P:problem=w źródle informacja o powtórce pierwszego Agnus [tylko w głosie Basso]	!	!	!	!	!	!	!	!	!
!	!	!	!	!	!	!	!	!LO:TX:a:t=P:problem=w źródle fermata również pod nutą	!
!LO:TX:a:Bi:t=Sit Laus Deo\nAgnus 3tium ut 1mum	!	!	!	!	!	!	!	!	!
!	!	!	!	!	!	!	!	!LO:TX:a:Bi:t=Communio	!
0FF]	.	.	0F]	.	.	0A]	.	0c;;	-cem.
==	==	==	==	==	==	==	==	==	==
*-	*-	*-	*-	*-	*-	*-	*-	*-	*-
!!!system-decoration: [(s1,s2,s3,s4)]
!!!RDF**kern: > = above
!!!RDF**kern: < = below
!!!RDF**kern: l = terminal long
!!!EED: Wojciech Jakubiak-Danek
!!!EEV: 2021-03-08
!!!ENC: Berenika Jozajtis
!!!END: 2021-02-23
!!!YEC: Copyright 2022 Narodowy Instytut Fryderyka Chopina (https://polishscores.org)
!!!YEM: Licence CC BY 4.0 (https://creativecommons.org/licenses/by/4.0)
